!!!OTL@@DE: Zu Festgelagen
!!!ONB: Neuere Volksweise
!!!ODT: 1825
!!!OMD: Heiter
!!!ONB: Gedicht in den "Breslauer Burschenliedern"
!!!LDT: 1821
!!!OCL: Erk, Ludwig
!!!GCO: Deutscher Liederschatz, Band 1
**kern	**kern	**kern
*staff3	*staff2	*staff1
*Ipiano	*Ipiano	*Ivox
*>[A,A,B,B]	*>[A,A,B,B]	*>[A,A,B,B]
*>norep[A,B]	*>norep[A,B]	*>norep[A,B]
*>A	*>A	*>A
=1-	=1-	=1-
*clefF4	*clefG2	*clefG2
*k[f#c#g#]	*k[f#c#g#]	*k[f#c#g#]
*A:	*A:	*A:
*M2/4	*M2/4	*M2/4
*MM92	*MM92	*MM92
4AA\ 4A\	4c#/ 4e/	4e/
4AA\ 4A\	4c#/ 4e/ 4a/	4a/
=2	=2	=2
4.AA\ 4.A\	4.e/ 4.a/ 4.cc#/	4.cc#\
8A\	8c#/ 8e/ 8a/	8a/
=3	=3	=3
8D\ 8A\L	8d/ 8f#/L	8f#/
8AA\ 8A\	8c#/ 8e/	8e/
8D\ 8A\	8d/ 8f#/	8f#/
8BB\ 8B\J	8d/ 8g#/J	8g#/
=4	=4	=4
4AA/ 4E/	4c#/ 4a/	4a/
4AA\ 4A\	4c#/ 4e/	4e/
=5	=5	=5
8G#\ 8B\L	8e/ 8b/L	8b\
8F#\ 8B\	8d#/ 8a/	8a/
8E\ 8B\	8e/ 8g#/	8g#/
8F#\ 8B\J	8e/ 8a/J	8a/
=6	=6	=6
*	*^	*
4G#\ 4B\	(8b/L	4.e\	(8b\L
.	8ee/)	.	8ee\J)
8A/	8cc#/	.	(8cc#\L
8c#/	8a/J	8f#\	8a\J)
*	*v	*v	*
=7	=7	=7
4B\	4e/ 4g#/	4g#/
4BB\ 4A\	4d#/ 4f#/	4f#/
=8	=8	=8
4E\ 4G#\	4B/ 4e/	4e/
4r	4r	4r
=9:|!|:	=9:|!|:	=9:|!|:
*>B	*>B	*>B
8.E\ 8.B\L	8.e/ 8.g#/ 8.dd/L	8.dd\
16E\ 16A\k	16e/ 16a/ 16cc#/k	16cc#\
8E\ 8G#\	8e/ 8b/ 8dd/	8dd\
8E\ 8A\J	8e/ 8a/ 8cc#/J	8cc#\
=10	=10	=10
8E\ 8e\L	8e/ 8g#/ 8b/L	8b\
16E\L	16e/L	16e/
16E\JJ	16e/JJ	16e/
8E\L	8e/L	8e/
8E\J	8e/J	8e/
=11	=11	=11
8.C#\ 8.c#\L	8.e/ 8.a/ 8.ee/L	8.ee\
16D\ 16A\k	16a/ 16ff#/k	16ff#\
8E\ 8c#\	8a/ 8ee/	8ee\
8E\ 8B\J	8g#/ 8dd/J	8dd\
=12	=12	=12
8AA\ 8A\	8e/ 8a/ 8cc#/	8cc#\
16A\LL	16a/LL	16a/
16A\JJ	16a/JJ	16a/
8A\L	8a/L	8a/
8A\J	8a/J	8a/
=13	=13	=13
8.AA\ 8.A\L	8.e/ 8.a/ 8.cc#/L	8.cc#\
16E\ 16G#\k	16e/ 16b/k	16b\
8AA\ 8A\	8e/ 8a/ 8cc#/	8cc#\
8BB\ 8B\J	8e/ 8a/ 8dd/J	8dd\
=14	=14	=14
4C#\ 4c#\	4e/ 4a/ 4ee/	4ee\
*	*^	*
4F#\ 4A\	8a/L	4d#\	8a/L
.	8b/J	.	8b/J
*	*v	*v	*
=15	=15	=15
4E\	4e/ 4a/ 4cc#/	4cc#\
4EE/	4dn/ 4e/ 4g#/ 4b/	4b\
=16	=16	=16
4AA/	4c#/ 4e/ 4a/	4a/
4r	4r	4r
==:|!	==:|!	==:|!
*-	*-	*-
!!!ENC: Craig Stuart Sapp
!!!END: 2004/06/28/
!!!EFL: 175/651
